src/assets/telegram.svg

<svg xmlns="http://www.w3.org/2000/svg" width="29" height="29" viewBox="0 0 29 29" fill="none">
  <g clip-path="url(#clip0_12_91)">
    <path d="M28.213 0.984926C28.7851 1.36316 29.0853 2.01698 28.9776 2.67079L25.3526 25.1489C25.2677 25.6731 24.9335 26.1324 24.4464 26.3917C23.9593 26.6511 23.3759 26.6835 22.8605 26.4782L15.7067 23.6414L13.4355 27.6669C13.1409 28.1911 12.5122 28.4558 11.9062 28.3099C11.3001 28.164 10.8753 27.6453 10.8753 27.0509V21.8637C10.8753 21.5773 10.9773 21.2963 11.1642 21.0694L20.5269 9.58174C20.6685 9.1981 20.1587 8.80905 19.7905 9.12785L9.65186 17.876L7.83936 19.4375C7.31827 19.886 6.57628 20.0103 5.92491 19.7509L1.11046 17.8381C0.476082 17.5842 0.0456136 17.0114 0.00596516 16.3522C-0.0336833 15.693 0.317489 15.0716 0.917879 14.742L26.2929 0.909278C26.8989 0.579671 27.6466 0.612091 28.2187 0.984926H28.213Z" fill="white"/>
  </g>
  <defs>
    <clipPath id="clip0_12_91">
      <rect width="29" height="27.6654" fill="white" transform="translate(0 0.682617)"/>
    </clipPath>
  </defs>
</svg>

<svg xmlns="http://www.w3.org/2000/svg" width="29" height="29" fill="none"><g clip-path="url(#a)"><path d="M28.213.985c.572.378.872 1.032.765 1.686l-3.625 22.478a1.73 1.73 0 0 1-.907 1.243c-.487.26-1.07.291-1.586.086l-7.153-2.837-2.272 4.026c-.294.524-.923.789-1.529.643-.606-.146-1.03-.665-1.03-1.26v-5.186c0-.287.101-.568.288-.795l9.363-11.487c.142-.384-.368-.773-.736-.454L9.65 17.876 7.84 19.437a1.878 1.878 0 0 1-1.914.314L1.11 17.838c-.634-.254-1.064-.827-1.104-1.486-.04-.659.311-1.28.912-1.61L26.293.909a1.892 1.892 0 0 1 1.926.076h-.006Z" fill="#fff"/></g><defs><clipPath id="a"><path fill="#fff" transform="translate(0 .683)" d="M0 0h29v27.665H0z"/></clipPath></defs></svg>
